src/assets/outline/CardCoin.svg

<svg width="24" height="24" viewBox="0 0 24 24"  xmlns="http://www.w3.org/2000/svg">
<path d="M12 17.8096H2C1.59 17.8096 1.25 17.4696 1.25 17.0596C1.25 16.6496 1.59 16.3096 2 16.3096H12C12.41 16.3096 12.75 16.6496 12.75 17.0596C12.75 17.4796 12.41 17.8096 12 17.8096Z" />
<path d="M9.77979 22.75H4.22974C2.03974 22.75 1.25977 21.98 1.25977 19.8V15.7C1.25977 13.52 2.03974 12.75 4.22974 12.75H9.77979C11.9698 12.75 12.7498 13.52 12.7498 15.7V19.81C12.7498 21.98 11.9698 22.75 9.77979 22.75ZM4.21973 14.25C2.85973 14.25 2.74976 14.36 2.74976 15.7V19.81C2.74976 21.15 2.85973 21.26 4.21973 21.26H9.76978C11.1298 21.26 11.2397 21.15 11.2397 19.81V15.7C11.2397 14.36 11.1298 14.25 9.76978 14.25H4.21973Z" />
<path d="M15.0002 22.7502C14.7302 22.7502 14.4802 22.6002 14.3502 22.3702C14.2202 22.1302 14.2202 21.8502 14.3602 21.6102L15.4102 19.8602C15.6202 19.5102 16.0802 19.3902 16.4402 19.6002C16.8002 19.8102 16.9102 20.2702 16.7002 20.6302L16.4302 21.0802C19.1902 20.4302 21.2602 17.9502 21.2602 14.9902C21.2602 14.5802 21.6002 14.2402 22.0102 14.2402C22.4202 14.2402 22.7602 14.5802 22.7602 14.9902C22.7502 19.2702 19.2702 22.7502 15.0002 22.7502Z" />
<path d="M2 9.75C1.59 9.75 1.25 9.41 1.25 9C1.25 4.73 4.73 1.25 9 1.25C9.27 1.25 9.52002 1.4 9.65002 1.63C9.78002 1.87 9.78001 2.15 9.64001 2.39L8.59003 4.14C8.38003 4.49 7.92 4.61 7.56 4.4C7.2 4.19 7.08999 3.73 7.29999 3.37L7.57001 2.92C4.81001 3.57 2.73999 6.05 2.73999 9.01C2.74999 9.41 2.41 9.75 2 9.75Z" />
<path d="M18.5 11.75C15.61 11.75 13.25 9.4 13.25 6.5C13.25 3.6 15.6 1.25 18.5 1.25C21.4 1.25 23.75 3.6 23.75 6.5C23.75 9.4 21.39 11.75 18.5 11.75ZM18.5 2.75C16.43 2.75 14.75 4.43 14.75 6.5C14.75 8.57 16.43 10.25 18.5 10.25C20.57 10.25 22.25 8.57 22.25 6.5C22.25 4.43 20.57 2.75 18.5 2.75Z" />
</svg>

<?xml version="1.0" encoding="UTF-8"?>
<svg width="24" height="24" viewBox="0 0 24 24" xmlns="http://www.w3.org/2000/svg">
 <path d="m12 17.81h-10c-0.41 0-0.75-0.34-0.75-0.75s0.34-0.75 0.75-0.75h10c0.41 0 0.75 0.34 0.75 0.75 0 0.42-0.34 0.75-0.75 0.75z"/>
 <path d="m9.7798 22.75h-5.55c-2.19 0-2.97-0.77-2.97-2.95v-4.1c0-2.18 0.77997-2.95 2.97-2.95h5.55c2.19 0 2.97 0.77 2.97 2.95v4.11c0 2.17-0.78 2.94-2.97 2.94zm-5.5601-8.5c-1.36 0-1.47 0.11-1.47 1.45v4.11c0 1.34 0.10997 1.45 1.47 1.45h5.55c1.36 0 1.4699-0.11 1.4699-1.45v-4.11c0-1.34-0.1099-1.45-1.4699-1.45h-5.55z"/>
 <path d="m15 22.75c-0.27 0-0.52-0.15-0.65-0.38-0.13-0.24-0.13-0.52 0.01-0.76l1.05-1.75c0.21-0.35 0.67-0.47 1.03-0.26s0.47 0.67 0.26 1.03l-0.27 0.45c2.76-0.65 4.83-3.13 4.83-6.09 0-0.41 0.34-0.75 0.75-0.75s0.75 0.34 0.75 0.75c-0.01 4.28-3.49 7.76-7.76 7.76z"/>
 <path d="m2 9.75c-0.41 0-0.75-0.34-0.75-0.75 0-4.27 3.48-7.75 7.75-7.75 0.27 0 0.52002 0.15 0.65002 0.38 0.13 0.24 0.12999 0.52-0.01001 0.76l-1.05 1.75c-0.21 0.35-0.67003 0.47-1.03 0.26s-0.47001-0.67-0.26001-1.03l0.27002-0.45c-2.76 0.65-4.83 3.13-4.83 6.09 0.01 0.4-0.32999 0.74-0.73999 0.74z"/>
 <path d="m18.5 11.75c-2.89 0-5.25-2.35-5.25-5.25s2.35-5.25 5.25-5.25 5.25 2.35 5.25 5.25-2.36 5.25-5.25 5.25zm0-9c-2.07 0-3.75 1.68-3.75 3.75s1.68 3.75 3.75 3.75 3.75-1.68 3.75-3.75-1.68-3.75-3.75-3.75z"/>
</svg>
